svg/fluentui-system-icons/ic_fluent_mention_brackets_20_filled.svg

<svg width="20" height="20" viewBox="0 0 20 20" fill="none" xmlns="http://www.w3.org/2000/svg">
<path d="M4.75 2C3.23122 2 2 3.23122 2 4.75V15.25C2 16.7688 3.23122 18 4.75 18H6.25C6.66421 18 7 17.6642 7 17.25C7 16.8358 6.66421 16.5 6.25 16.5H4.75C4.05964 16.5 3.5 15.9404 3.5 15.25V4.75C3.5 4.05964 4.05964 3.5 4.75 3.5H6.25C6.66421 3.5 7 3.16421 7 2.75C7 2.33579 6.66421 2 6.25 2H4.75ZM11.75 7.25C12.1642 7.25 12.5 7.58579 12.5 8V10.75C12.5 11.1642 12.8358 11.5 13.25 11.5C13.6642 11.5 14 11.1642 14 10.75V10C14 7.79086 12.2091 6 10 6C7.79086 6 6 7.79086 6 10C6 12.1291 7.66342 13.8697 9.76155 13.993L9.7575 14.0002L9.76931 13.9935C9.84565 13.9978 9.92257 14 10 14C10.377 14 10.721 13.9575 11.0502 13.8677C11.4037 13.7713 11.7993 13.9181 11.9353 14.2583C12.1071 14.6876 11.9138 15.1854 11.4682 15.3092C11.0058 15.4378 10.523 15.5 10 15.5C6.96243 15.5 4.5 13.0376 4.5 10C4.5 6.96243 6.96243 4.5 10 4.5C13.0376 4.5 15.5 6.96243 15.5 10V10.75C15.5 11.2064 15.3641 11.631 15.1306 11.9856C15.0902 12.0902 15.0466 12.1932 15 12.2945V12.1643C14.5875 12.6741 13.9568 13 13.25 13C12.4953 13 11.8275 12.6285 11.4193 12.0583C11.0161 12.3369 10.5271 12.5 10 12.5C8.61929 12.5 7.5 11.3807 7.5 10C7.5 8.61929 8.61929 7.5 10 7.5C10.375 7.5 10.7307 7.58255 11.0499 7.73048C11.1582 7.44942 11.4308 7.25 11.75 7.25ZM10 9C9.44772 9 9 9.44772 9 10C9 10.5523 9.44772 11 10 11C10.5523 11 11 10.5523 11 10C11 9.44772 10.5523 9 10 9ZM18 4.75C18 3.23122 16.7688 2 15.25 2H13.75C13.3358 2 13 2.33579 13 2.75C13 3.16421 13.3358 3.5 13.75 3.5H15.25C15.9404 3.5 16.5 4.05964 16.5 4.75V15.25C16.5 15.9404 15.9404 16.5 15.25 16.5H13.75C13.3358 16.5 13 16.8358 13 17.25C13 17.6642 13.3358 18 13.75 18H15.25C16.7688 18 18 16.7688 18 15.25V4.75Z" fill="#212121"/>
</svg>

<svg xmlns="http://www.w3.org/2000/svg" width="20" height="20"><path d="M4.75 2A2.75 2.75 0 0 0 2 4.75v10.5A2.75 2.75 0 0 0 4.75 18h1.5a.75.75 0 0 0 0-1.5h-1.5c-.69 0-1.25-.56-1.25-1.25V4.75c0-.69.56-1.25 1.25-1.25h1.5a.75.75 0 0 0 0-1.5h-1.5Zm7 5.25a.75.75 0 0 1 .75.75v2.75a.75.75 0 0 0 1.5 0V10a4 4 0 1 0-4.238 3.993L9.757 14l.012-.007a3.944 3.944 0 0 0 1.28-.126c.355-.096.75.051.886.391.172.43-.021.927-.467 1.051A5.402 5.402 0 0 1 10 15.5a5.5 5.5 0 1 1 5.5-5.5v.75c0 .456-.136.881-.37 1.236a5.36 5.36 0 0 1-.13.308v-.13a2.246 2.246 0 0 1-1.75.836 2.247 2.247 0 0 1-1.83-.942 2.5 2.5 0 1 1-.37-4.328.75.75 0 0 1 .7-.48ZM10 9a1 1 0 1 0 0 2 1 1 0 0 0 0-2Zm8-4.25A2.75 2.75 0 0 0 15.25 2h-1.5a.75.75 0 0 0 0 1.5h1.5c.69 0 1.25.56 1.25 1.25v10.5c0 .69-.56 1.25-1.25 1.25h-1.5a.75.75 0 0 0 0 1.5h1.5A2.75 2.75 0 0 0 18 15.25V4.75Z"/></svg>
